T: Darkey's Dream
M: 4/4
L: 1/8
K: Gmaj
|: A,2 B,>C D F3 | E2 DE F A3 | d2 c>B A>FD>E | F2 E>D E2 A2 |A,2 B,>C D F3 | E2 DE F A3 | d2 c>B A>FD>E |[1 F>A,B,>C D2 d2 :|[2 fABc d2 (3ABc ||d2 d>e f>d AF | A>BA>F A2 (3ABc | d2 d>e fd AF | F>EE>F E2 (3ABc |d2 d>e f>d AF | A>BA>F A2 (3ABc | d2 c2 (3BcB A2 | (3GAG (3FGF (3EFE D>B, |]|: D2 E>F G B3 | A2 GA B d3 | g2 f>e d>BG>A | B2 A>G A2 d2 |D2 E>F G B3 | A2 GA B d3 | g2 f>e d>BG>A |[1 B>DE>F G2 g2 :|[2 bdef g2 (3def ||g2 g>a b>g dB | d>ed>B d2 (3def | g2 g>a bg dB | B>AA>B A2 (3def |g2 g>a b>g dB | d>ed>B d2 (3def | g2 f2 (3efe d2 | (3cdc (3BcB (3ABA G>E |]
